template/etc/bliss/blissos_logo.svg

<svg viewBox="0 0 1200 1200" fill="none">
  <defs />
  <path d="M620.11 1080c163.01-19.7 316.442-96.047 427.42-227.122 110.97-131.076 160.19-294.087 151.46-456.608-163.01 19.697-316.44 96.045-427.416 227.121C660.599 754.467 611.377 917.477 620.11 1080z" fill="#000" />
  <path d="M620.11 1080c163.01-19.7 316.442-96.047 427.42-227.122 110.97-131.076 160.19-294.087 151.46-456.608-163.01 19.697-316.44 96.045-427.416 227.121C660.599 754.467 611.377 917.477 620.11 1080z" fill="#f4ddf9" />
  <path d="M579.866 1080c8.734-162.522-40.488-325.532-151.463-456.608C317.427 492.316 163.995 415.968.985 396.271-7.748 558.792 41.474 721.803 152.45 852.879 263.425 983.954 416.857 1060.3 579.866 1080z" fill="#000" />
  <path d="M579.866 1080c8.734-162.522-40.488-325.532-151.463-456.608C317.427 492.316 163.995 415.968.985 396.271-7.748 558.792 41.474 721.803 152.45 852.879 263.425 983.954 416.857 1060.3 579.866 1080z" fill="#f4ddf9" />
  <path fill-rule="evenodd" clip-rule="evenodd" d="M716.125 347.177C686.413 286.02 647.237 229.748 600.35 180c-47.016 49.884-86.278 106.329-116.02 167.68 45.721 47.207 84.886 101.278 115.654 161.448 30.876-60.384 70.211-114.625 116.141-161.951z" fill="#000" />
  <path fill-rule="evenodd" clip-rule="evenodd" d="M716.125 347.177C686.413 286.02 647.237 229.748 600.35 180c-47.016 49.884-86.278 106.329-116.02 167.68 45.721 47.207 84.886 101.278 115.654 161.448 30.876-60.384 70.211-114.625 116.141-161.951z" fill="#f4ddf9" />
  <path fill-rule="evenodd" clip-rule="evenodd" d="M229.895 432.306c6.78-67.71 24.192-134.037 51.15-196.829 130.8 65.913 238.804 171.738 302.444 308.236a673.766 673.766 0 00-16.037 39.727c-17.014 46.328-28.557 93.398-34.943 140.562-22.237-42.043-49.278-82.278-81.211-119.995-62.721-74.081-138.35-131.4-221.403-171.701z" fill="#000" />
  <path fill-rule="evenodd" clip-rule="evenodd" d="M229.895 432.306c6.78-67.71 24.192-134.037 51.15-196.829 130.8 65.913 238.804 171.738 302.444 308.236a673.766 673.766 0 00-16.037 39.727c-17.014 46.328-28.557 93.398-34.943 140.562-22.237-42.043-49.278-82.278-81.211-119.995-62.721-74.081-138.35-131.4-221.403-171.701z" fill="#f4ddf9" />
  <path fill-rule="evenodd" clip-rule="evenodd" d="M970.071 432.31c-6.78-67.712-24.193-134.04-51.151-196.833-146.381 73.765-264.212 197.517-323.261 358.305-22.137 60.278-34.57 121.832-38.075 183.124 19.54 46.384 33.639 94.495 42.403 143.463 20.353-113.707 69.464-222.787 148.69-316.363 62.719-74.078 138.344-131.396 221.394-171.696z" fill="#000" />
  <path fill-rule="evenodd" clip-rule="evenodd" d="M970.071 432.31c-6.78-67.712-24.193-134.04-51.151-196.833-146.381 73.765-264.212 197.517-323.261 358.305-22.137 60.278-34.57 121.832-38.075 183.124 19.54 46.384 33.639 94.495 42.403 143.463 20.353-113.707 69.464-222.787 148.69-316.363 62.719-74.078 138.344-131.396 221.394-171.696z" fill="#f4ddf9" />
</svg>

<?xml version="1.0" encoding="UTF-8" standalone="no"?>
<svg width="1200" height="1200" viewBox="0 0 1200 1200" fill="none" version="1.1" id="svg10" xmlns="http://www.w3.org/2000/svg" xmlns:svg="http://www.w3.org/2000/svg">
  <defs id="defs10"/>
  <path d="M 620.11,1080 C 783.12,1060.3 936.552,983.953 1047.53,852.878 1158.5,721.802 1207.72,558.791 1198.99,396.27 1035.98,415.967 882.55,492.315 771.574,623.391 660.599,754.467 611.377,917.477 620.11,1080 Z" fill="#000000" id="path1"/>
  <path d="M 620.11,1080 C 783.12,1060.3 936.552,983.953 1047.53,852.878 1158.5,721.802 1207.72,558.791 1198.99,396.27 1035.98,415.967 882.55,492.315 771.574,623.391 660.599,754.467 611.377,917.477 620.11,1080 Z" fill="black" id="path2" style="fill:#f4ddf9;fill-opacity:1"/>
  <path d="M 579.866,1080 C 588.6,917.478 539.378,754.468 428.403,623.392 317.427,492.316 163.995,415.968 0.985436,396.271 -7.74802,558.792 41.4737,721.803 152.449,852.879 263.425,983.954 416.857,1060.3 579.866,1080 Z" fill="#000000" id="path3"/>
  <path d="M 579.866,1080 C 588.6,917.478 539.378,754.468 428.403,623.392 317.427,492.316 163.995,415.968 0.985436,396.271 -7.74802,558.792 41.4737,721.803 152.449,852.879 263.425,983.954 416.857,1060.3 579.866,1080 Z" fill="black" id="path4" style="fill:#f4ddf9;fill-opacity:1"/>
  <path fill-rule="evenodd" clip-rule="evenodd" d="M 716.125,347.177 C 686.413,286.02 647.237,229.748 600.35,180 c -47.016,49.884 -86.278,106.329 -116.02,167.68 45.721,47.207 84.886,101.278 115.654,161.448 30.876,-60.384 70.211,-114.625 116.141,-161.951 z" fill="#000000" id="path5"/>
  <path fill-rule="evenodd" clip-rule="evenodd" d="M 716.125,347.177 C 686.413,286.02 647.237,229.748 600.35,180 c -47.016,49.884 -86.278,106.329 -116.02,167.68 45.721,47.207 84.886,101.278 115.654,161.448 30.876,-60.384 70.211,-114.625 116.141,-161.951 z" fill="black" id="path6" style="fill:#f4ddf9;fill-opacity:1"/>
  <path fill-rule="evenodd" clip-rule="evenodd" d="m 229.895,432.306 c 6.78,-67.71 24.192,-134.037 51.15,-196.829 130.8,65.913 238.804,171.738 302.444,308.236 -5.73,12.987 -11.081,26.231 -16.037,39.727 -17.014,46.328 -28.557,93.398 -34.943,140.562 -22.237,-42.043 -49.278,-82.278 -81.211,-119.995 -62.721,-74.081 -138.35,-131.4 -221.403,-171.701 z" fill="#000000" id="path7"/>
  <path fill-rule="evenodd" clip-rule="evenodd" d="m 229.895,432.306 c 6.78,-67.71 24.192,-134.037 51.15,-196.829 130.8,65.913 238.804,171.738 302.444,308.236 -5.73,12.987 -11.081,26.231 -16.037,39.727 -17.014,46.328 -28.557,93.398 -34.943,140.562 -22.237,-42.043 -49.278,-82.278 -81.211,-119.995 -62.721,-74.081 -138.35,-131.4 -221.403,-171.701 z" fill="black" id="path8" style="fill:#f4ddf9;fill-opacity:1"/>
  <path fill-rule="evenodd" clip-rule="evenodd" d="M 970.071,432.31 C 963.291,364.598 945.878,298.27 918.92,235.477 772.539,309.242 654.708,432.994 595.659,593.782 c -22.137,60.278 -34.57,121.832 -38.075,183.124 19.54,46.384 33.639,94.495 42.403,143.463 C 620.34,806.662 669.451,697.582 748.677,604.006 811.396,529.928 887.021,472.61 970.071,432.31 Z" fill="#000000" id="path9"/>
  <path fill-rule="evenodd" clip-rule="evenodd" d="M 970.071,432.31 C 963.291,364.598 945.878,298.27 918.92,235.477 772.539,309.242 654.708,432.994 595.659,593.782 c -22.137,60.278 -34.57,121.832 -38.075,183.124 19.54,46.384 33.639,94.495 42.403,143.463 C 620.34,806.662 669.451,697.582 748.677,604.006 811.396,529.928 887.021,472.61 970.071,432.31 Z" fill="black" id="path10" style="fill:#f4ddf9;fill-opacity:1"/>
</svg>
